images/50282882.svg

<?xml version="1.0" encoding="UTF-8"?>
<svg xmlns="http://www.w3.org/2000/svg" xmlns:xlink="http://www.w3.org/1999/xlink" width="300pt" height="300pt" viewBox="0 0 300 300" version="1.1">
<defs>
<g>
<symbol overflow="visible" id="glyph0-0">
<path style="stroke:none;" d="M 0.453125 1.59375 L 0.453125 -6.34375 L 4.953125 -6.34375 L 4.953125 1.59375 Z M 0.953125 1.09375 L 4.453125 1.09375 L 4.453125 -5.84375 L 0.953125 -5.84375 Z M 0.953125 1.09375 "/>
</symbol>
<symbol overflow="visible" id="glyph0-1">
<path style="stroke:none;" d="M 3.546875 -5.953125 C 2.898438 -5.953125 2.382812 -5.710938 2 -5.234375 C 1.625 -4.753906 1.4375 -4.101562 1.4375 -3.28125 C 1.4375 -2.445312 1.625 -1.789062 2 -1.3125 C 2.382812 -0.832031 2.898438 -0.59375 3.546875 -0.59375 C 4.191406 -0.59375 4.703125 -0.832031 5.078125 -1.3125 C 5.453125 -1.789062 5.640625 -2.445312 5.640625 -3.28125 C 5.640625 -4.101562 5.453125 -4.753906 5.078125 -5.234375 C 4.703125 -5.710938 4.191406 -5.953125 3.546875 -5.953125 Z M 3.546875 -6.6875 C 4.460938 -6.6875 5.195312 -6.375 5.75 -5.75 C 6.300781 -5.132812 6.578125 -4.3125 6.578125 -3.28125 C 6.578125 -2.238281 6.300781 -1.410156 5.75 -0.796875 C 5.195312 -0.179688 4.460938 0.125 3.546875 0.125 C 2.617188 0.125 1.878906 -0.179688 1.328125 -0.796875 C 0.773438 -1.410156 0.5 -2.238281 0.5 -3.28125 C 0.5 -4.3125 0.773438 -5.132812 1.328125 -5.75 C 1.878906 -6.375 2.617188 -6.6875 3.546875 -6.6875 Z M 3.546875 -6.6875 "/>
</symbol>
<symbol overflow="visible" id="glyph0-2">
<path style="stroke:none;" d="M 0.890625 -6.5625 L 2.078125 -6.5625 L 4.984375 -1.078125 L 4.984375 -6.5625 L 5.84375 -6.5625 L 5.84375 0 L 4.65625 0 L 1.75 -5.484375 L 1.75 0 L 0.890625 0 Z M 0.890625 -6.5625 "/>
</symbol>
<symbol overflow="visible" id="glyph0-3">
<path style="stroke:none;" d="M 0.890625 -6.5625 L 1.765625 -6.5625 L 1.765625 -3.875 L 5 -3.875 L 5 -6.5625 L 5.890625 -6.5625 L 5.890625 0 L 5 0 L 5 -3.125 L 1.765625 -3.125 L 1.765625 0 L 0.890625 0 Z M 0.890625 -6.5625 "/>
</symbol>
</g>
</defs>
<g id="surface27345">
<rect x="0" y="0" width="300" height="300" style="fill:rgb(100%,100%,100%);fill-opacity:1;stroke:none;"/>
<path style="fill:none;stroke-width:1.2;stroke-linecap:butt;stroke-linejoin:miter;stroke:rgb(100%,0%,0%);stroke-opacity:1;stroke-miterlimit:10;" d="M 66.246094 185.222656 L 57.453125 182.554688 "/>
<path style="fill:none;stroke-width:1.2;stroke-linecap:butt;stroke-linejoin:miter;stroke:rgb(0%,0%,0%);stroke-opacity:1;stroke-miterlimit:10;" d="M 57.453125 182.554688 L 48.660156 179.890625 "/>
<path style="fill:none;stroke-width:1.2;stroke-linecap:butt;stroke-linejoin:miter;stroke:rgb(100%,0%,0%);stroke-opacity:1;stroke-miterlimit:10;" d="M 66.246094 185.222656 L 72.949219 178.9375 "/>
<path style="fill:none;stroke-width:1.2;stroke-linecap:butt;stroke-linejoin:miter;stroke:rgb(0%,0%,0%);stroke-opacity:1;stroke-miterlimit:10;" d="M 72.949219 178.9375 L 79.65625 172.65625 "/>
<path style=" stroke:none;fill-rule:nonzero;fill:rgb(100%,100%,100%);fill-opacity:1;" d="M 62.246094 179.722656 L 70.246094 179.722656 L 70.246094 190.722656 L 62.246094 190.722656 Z M 62.246094 179.722656 "/>
<g style="fill:rgb(100%,0%,0%);fill-opacity:1;">
  <use xlink:href="#glyph0-1" x="62.246094" y="188.385742"/>
</g>
<path style="fill:none;stroke-width:1.2;stroke-linecap:butt;stroke-linejoin:miter;stroke:rgb(0%,0%,0%);stroke-opacity:1;stroke-miterlimit:10;" d="M 48.660156 179.890625 L 35.25 192.457031 "/>
<path style="fill:none;stroke-width:1.2;stroke-linecap:butt;stroke-linejoin:miter;stroke:rgb(0%,0%,0%);stroke-opacity:1;stroke-miterlimit:10;" d="M 79.65625 172.65625 L 75.476562 154.761719 "/>
<path style="fill:none;stroke-width:1.2;stroke-linecap:butt;stroke-linejoin:miter;stroke:rgb(0%,0%,0%);stroke-opacity:1;stroke-miterlimit:10;" d="M 83.449219 169.882812 L 80.105469 155.566406 "/>
<path style="fill:none;stroke-width:1.2;stroke-linecap:butt;stroke-linejoin:miter;stroke:rgb(0%,0%,0%);stroke-opacity:1;stroke-miterlimit:10;" d="M 97.242188 177.988281 L 79.65625 172.65625 "/>
<path style="fill:none;stroke-width:1.2;stroke-linecap:butt;stroke-linejoin:miter;stroke:rgb(0%,0%,0%);stroke-opacity:1;stroke-miterlimit:10;" d="M 75.476562 154.761719 L 88.886719 142.195312 "/>
<path style="fill:none;stroke-width:1.2;stroke-linecap:butt;stroke-linejoin:miter;stroke:rgb(0%,0%,0%);stroke-opacity:1;stroke-miterlimit:10;" d="M 88.886719 142.195312 L 106.472656 147.527344 "/>
<path style="fill:none;stroke-width:1.2;stroke-linecap:butt;stroke-linejoin:miter;stroke:rgb(0%,0%,0%);stroke-opacity:1;stroke-miterlimit:10;" d="M 89.390625 146.867188 L 103.460938 151.132812 "/>
<path style="fill:none;stroke-width:1.2;stroke-linecap:butt;stroke-linejoin:miter;stroke:rgb(0%,0%,0%);stroke-opacity:1;stroke-miterlimit:10;" d="M 106.472656 147.527344 L 110.652344 165.421875 "/>
<path style="fill:none;stroke-width:1.2;stroke-linecap:butt;stroke-linejoin:miter;stroke:rgb(0%,0%,0%);stroke-opacity:1;stroke-miterlimit:10;" d="M 106.472656 147.527344 L 119.882812 134.960938 "/>
<path style="fill:none;stroke-width:1.2;stroke-linecap:butt;stroke-linejoin:miter;stroke:rgb(0%,0%,0%);stroke-opacity:1;stroke-miterlimit:10;" d="M 110.652344 165.421875 L 97.242188 177.988281 "/>
<path style="fill:none;stroke-width:1.2;stroke-linecap:butt;stroke-linejoin:miter;stroke:rgb(0%,0%,0%);stroke-opacity:1;stroke-miterlimit:10;" d="M 106.351562 163.523438 L 95.625 173.574219 "/>
<path style="fill:none;stroke-width:1.2;stroke-linecap:butt;stroke-linejoin:miter;stroke:rgb(0%,0%,0%);stroke-opacity:1;stroke-miterlimit:10;" d="M 121.988281 134.46875 L 119.898438 125.523438 "/>
<path style="fill:none;stroke-width:1.2;stroke-linecap:butt;stroke-linejoin:miter;stroke:rgb(100%,0%,0%);stroke-opacity:1;stroke-miterlimit:10;" d="M 119.898438 125.523438 L 117.8125 116.574219 "/>
<path style="fill:none;stroke-width:1.2;stroke-linecap:butt;stroke-linejoin:miter;stroke:rgb(0%,0%,0%);stroke-opacity:1;stroke-miterlimit:10;" d="M 117.777344 135.453125 L 115.6875 126.503906 "/>
<path style="fill:none;stroke-width:1.2;stroke-linecap:butt;stroke-linejoin:miter;stroke:rgb(100%,0%,0%);stroke-opacity:1;stroke-miterlimit:10;" d="M 115.6875 126.503906 L 113.601562 117.558594 "/>
<path style="fill:none;stroke-width:1.2;stroke-linecap:butt;stroke-linejoin:miter;stroke:rgb(0%,0%,0%);stroke-opacity:1;stroke-miterlimit:10;" d="M 119.882812 134.960938 L 128.675781 137.625 "/>
<path style="fill:none;stroke-width:1.2;stroke-linecap:butt;stroke-linejoin:miter;stroke:rgb(0%,0%,100%);stroke-opacity:1;stroke-miterlimit:10;" d="M 128.675781 137.625 L 137.46875 140.292969 "/>
<path style=" stroke:none;fill-rule:nonzero;fill:rgb(100%,100%,100%);fill-opacity:1;" d="M 111.707031 111.566406 L 119.707031 111.566406 L 119.707031 122.566406 L 111.707031 122.566406 Z M 111.707031 111.566406 "/>
<g style="fill:rgb(100%,0%,0%);fill-opacity:1;">
  <use xlink:href="#glyph0-1" x="111.707031" y="120.229492"/>
</g>
<path style="fill:none;stroke-width:1.2;stroke-linecap:butt;stroke-linejoin:miter;stroke:rgb(0%,0%,100%);stroke-opacity:1;stroke-miterlimit:10;" d="M 137.46875 140.292969 L 144.175781 134.007812 "/>
<path style="fill:none;stroke-width:1.2;stroke-linecap:butt;stroke-linejoin:miter;stroke:rgb(0%,0%,0%);stroke-opacity:1;stroke-miterlimit:10;" d="M 144.175781 134.007812 L 150.878906 127.726562 "/>
<path style=" stroke:none;fill-rule:nonzero;fill:rgb(100%,100%,100%);fill-opacity:1;" d="M 130.46875 134.792969 L 144.46875 134.792969 L 144.46875 145.792969 L 130.46875 145.792969 Z M 130.46875 134.792969 "/>
<g style="fill:rgb(0%,0%,100%);fill-opacity:1;">
  <use xlink:href="#glyph0-2" x="130.46875" y="143.456055"/>
  <use xlink:href="#glyph0-3" x="137.446289" y="143.456055"/>
</g>
<path style="fill:none;stroke-width:1.2;stroke-linecap:butt;stroke-linejoin:miter;stroke:rgb(0%,0%,0%);stroke-opacity:1;stroke-miterlimit:10;" d="M 150.878906 127.726562 L 168.464844 133.058594 "/>
<path style="fill:none;stroke-width:1.2;stroke-linecap:butt;stroke-linejoin:miter;stroke:rgb(0%,0%,0%);stroke-opacity:1;stroke-miterlimit:10;" d="M 153.890625 124.121094 L 167.960938 128.386719 "/>
<path style="fill:none;stroke-width:1.2;stroke-linecap:butt;stroke-linejoin:miter;stroke:rgb(0%,0%,0%);stroke-opacity:1;stroke-miterlimit:10;" d="M 146.703125 109.832031 L 150.878906 127.726562 "/>
<path style="fill:none;stroke-width:1.2;stroke-linecap:butt;stroke-linejoin:miter;stroke:rgb(0%,0%,0%);stroke-opacity:1;stroke-miterlimit:10;" d="M 168.464844 133.058594 L 181.875 120.492188 "/>
<path style="fill:none;stroke-width:1.2;stroke-linecap:butt;stroke-linejoin:miter;stroke:rgb(0%,0%,0%);stroke-opacity:1;stroke-miterlimit:10;" d="M 181.875 120.492188 L 190.667969 123.15625 "/>
<path style="fill:none;stroke-width:1.2;stroke-linecap:butt;stroke-linejoin:miter;stroke:rgb(0%,0%,100%);stroke-opacity:1;stroke-miterlimit:10;" d="M 190.667969 123.15625 L 199.460938 125.820312 "/>
<path style="fill:none;stroke-width:1.2;stroke-linecap:butt;stroke-linejoin:miter;stroke:rgb(0%,0%,0%);stroke-opacity:1;stroke-miterlimit:10;" d="M 181.875 120.492188 L 177.695312 102.597656 "/>
<path style="fill:none;stroke-width:1.2;stroke-linecap:butt;stroke-linejoin:miter;stroke:rgb(0%,0%,0%);stroke-opacity:1;stroke-miterlimit:10;" d="M 177.246094 119.683594 L 173.902344 105.367188 "/>
<path style="fill:none;stroke-width:1.2;stroke-linecap:butt;stroke-linejoin:miter;stroke:rgb(0%,0%,100%);stroke-opacity:1;stroke-miterlimit:10;" d="M 199.460938 125.820312 L 201.550781 134.769531 "/>
<path style="fill:none;stroke-width:1.2;stroke-linecap:butt;stroke-linejoin:miter;stroke:rgb(0%,0%,0%);stroke-opacity:1;stroke-miterlimit:10;" d="M 201.550781 134.769531 L 203.636719 143.71875 "/>
<path style=" stroke:none;fill-rule:nonzero;fill:rgb(100%,100%,100%);fill-opacity:1;" d="M 192.460938 120.320312 L 206.460938 120.320312 L 206.460938 131.320312 L 192.460938 131.320312 Z M 192.460938 120.320312 "/>
<g style="fill:rgb(0%,0%,100%);fill-opacity:1;">
  <use xlink:href="#glyph0-2" x="192.460938" y="128.983398"/>
  <use xlink:href="#glyph0-3" x="199.438477" y="128.983398"/>
</g>
<path style="fill:none;stroke-width:1.2;stroke-linecap:butt;stroke-linejoin:miter;stroke:rgb(0%,0%,0%);stroke-opacity:1;stroke-miterlimit:10;" d="M 202.160156 142.140625 L 195.453125 148.421875 "/>
<path style="fill:none;stroke-width:1.2;stroke-linecap:butt;stroke-linejoin:miter;stroke:rgb(100%,0%,0%);stroke-opacity:1;stroke-miterlimit:10;" d="M 195.453125 148.421875 L 188.75 154.703125 "/>
<path style="fill:none;stroke-width:1.2;stroke-linecap:butt;stroke-linejoin:miter;stroke:rgb(0%,0%,0%);stroke-opacity:1;stroke-miterlimit:10;" d="M 205.117188 145.296875 L 198.410156 151.578125 "/>
<path style="fill:none;stroke-width:1.2;stroke-linecap:butt;stroke-linejoin:miter;stroke:rgb(100%,0%,0%);stroke-opacity:1;stroke-miterlimit:10;" d="M 198.410156 151.578125 L 191.707031 157.859375 "/>
<path style="fill:none;stroke-width:1.2;stroke-linecap:butt;stroke-linejoin:miter;stroke:rgb(0%,0%,0%);stroke-opacity:1;stroke-miterlimit:10;" d="M 203.636719 143.71875 L 221.222656 149.046875 "/>
<path style=" stroke:none;fill-rule:nonzero;fill:rgb(100%,100%,100%);fill-opacity:1;" d="M 182.226562 150.78125 L 190.226562 150.78125 L 190.226562 161.78125 L 182.226562 161.78125 Z M 182.226562 150.78125 "/>
<g style="fill:rgb(100%,0%,0%);fill-opacity:1;">
  <use xlink:href="#glyph0-1" x="182.226562" y="159.444336"/>
</g>
<path style="fill:none;stroke-width:1.2;stroke-linecap:butt;stroke-linejoin:miter;stroke:rgb(0%,0%,0%);stroke-opacity:1;stroke-miterlimit:10;" d="M 221.222656 149.046875 L 225.402344 166.941406 "/>
<path style="fill:none;stroke-width:1.2;stroke-linecap:butt;stroke-linejoin:miter;stroke:rgb(0%,0%,0%);stroke-opacity:1;stroke-miterlimit:10;" d="M 225.851562 149.855469 L 229.195312 164.171875 "/>
<path style="fill:none;stroke-width:1.2;stroke-linecap:butt;stroke-linejoin:miter;stroke:rgb(0%,0%,0%);stroke-opacity:1;stroke-miterlimit:10;" d="M 234.632812 136.484375 L 221.222656 149.046875 "/>
<path style="fill:none;stroke-width:1.2;stroke-linecap:butt;stroke-linejoin:miter;stroke:rgb(0%,0%,0%);stroke-opacity:1;stroke-miterlimit:10;" d="M 225.402344 166.941406 L 242.988281 172.273438 "/>
<path style="fill:none;stroke-width:1.2;stroke-linecap:butt;stroke-linejoin:miter;stroke:rgb(0%,0%,0%);stroke-opacity:1;stroke-miterlimit:10;" d="M 242.988281 172.273438 L 245.074219 181.222656 "/>
<path style="fill:none;stroke-width:1.2;stroke-linecap:butt;stroke-linejoin:miter;stroke:rgb(0%,0%,100%);stroke-opacity:1;stroke-miterlimit:10;" d="M 245.074219 181.222656 L 247.164062 190.167969 "/>
<path style="fill:none;stroke-width:1.2;stroke-linecap:butt;stroke-linejoin:miter;stroke:rgb(0%,0%,0%);stroke-opacity:1;stroke-miterlimit:10;" d="M 242.988281 172.273438 L 256.394531 159.707031 "/>
<path style="fill:none;stroke-width:1.2;stroke-linecap:butt;stroke-linejoin:miter;stroke:rgb(0%,0%,0%);stroke-opacity:1;stroke-miterlimit:10;" d="M 241.371094 167.863281 L 252.097656 157.808594 "/>
<path style="fill:none;stroke-width:1.2;stroke-linecap:butt;stroke-linejoin:miter;stroke:rgb(0%,0%,100%);stroke-opacity:1;stroke-miterlimit:10;" d="M 247.164062 190.167969 L 240.460938 196.453125 "/>
<path style="fill:none;stroke-width:1.2;stroke-linecap:butt;stroke-linejoin:miter;stroke:rgb(0%,0%,0%);stroke-opacity:1;stroke-miterlimit:10;" d="M 240.460938 196.453125 L 233.753906 202.734375 "/>
<path style="fill:none;stroke-width:1.2;stroke-linecap:butt;stroke-linejoin:miter;stroke:rgb(0%,0%,100%);stroke-opacity:1;stroke-miterlimit:10;" d="M 247.164062 190.167969 L 255.957031 192.832031 "/>
<path style="fill:none;stroke-width:1.2;stroke-linecap:butt;stroke-linejoin:miter;stroke:rgb(0%,0%,0%);stroke-opacity:1;stroke-miterlimit:10;" d="M 255.957031 192.832031 L 264.75 195.5 "/>
<path style=" stroke:none;fill-rule:nonzero;fill:rgb(100%,100%,100%);fill-opacity:1;" d="M 244.164062 184.667969 L 251.164062 184.667969 L 251.164062 195.667969 L 244.164062 195.667969 Z M 244.164062 184.667969 "/>
<g style="fill:rgb(0%,0%,100%);fill-opacity:1;">
  <use xlink:href="#glyph0-2" x="244.164062" y="193.331055"/>
</g>
<path style="fill:none;stroke-width:1.2;stroke-linecap:butt;stroke-linejoin:miter;stroke:rgb(0%,0%,0%);stroke-opacity:1;stroke-miterlimit:10;" d="M 256.394531 159.707031 L 252.21875 141.8125 "/>
<path style="fill:none;stroke-width:1.2;stroke-linecap:butt;stroke-linejoin:miter;stroke:rgb(0%,0%,0%);stroke-opacity:1;stroke-miterlimit:10;" d="M 252.21875 141.8125 L 234.632812 136.484375 "/>
<path style="fill:none;stroke-width:1.2;stroke-linecap:butt;stroke-linejoin:miter;stroke:rgb(0%,0%,0%);stroke-opacity:1;stroke-miterlimit:10;" d="M 249.207031 145.417969 L 235.136719 141.152344 "/>
<path style="fill:none;stroke-width:1.2;stroke-linecap:butt;stroke-linejoin:miter;stroke:rgb(0%,0%,0%);stroke-opacity:1;stroke-miterlimit:10;" d="M 177.695312 102.597656 L 160.109375 97.265625 "/>
<path style="fill:none;stroke-width:1.2;stroke-linecap:butt;stroke-linejoin:miter;stroke:rgb(0%,0%,0%);stroke-opacity:1;stroke-miterlimit:10;" d="M 160.109375 97.265625 L 146.703125 109.832031 "/>
<path style="fill:none;stroke-width:1.2;stroke-linecap:butt;stroke-linejoin:miter;stroke:rgb(0%,0%,0%);stroke-opacity:1;stroke-miterlimit:10;" d="M 161.726562 101.679688 L 151 111.730469 "/>
<path style="fill:none;stroke-width:1.2;stroke-linecap:butt;stroke-linejoin:miter;stroke:rgb(0%,0%,0%);stroke-opacity:1;stroke-miterlimit:10;" d="M 146.703125 109.832031 L 129.117188 104.5 "/>
</g>
</svg>

<svg xmlns="http://www.w3.org/2000/svg" xmlns:xlink="http://www.w3.org/1999/xlink" width="300pt" height="300pt" viewBox="0 0 300 300"><defs><symbol overflow="visible"><path d="M.453 1.594v-7.938h4.5v7.938zm.5-.5h3.5v-6.938h-3.5zm0 0"/></symbol><symbol overflow="visible" id="a"><path d="M3.547-5.953c-.65 0-1.164.242-1.547.72-.375.48-.563 1.13-.563 1.952 0 .835.188 1.49.563 1.967.383.48.898.72 1.547.72.644 0 1.156-.24 1.53-.72.376-.476.564-1.132.564-1.968 0-.822-.187-1.474-.562-1.954-.375-.477-.887-.72-1.53-.72zm0-.734c.914 0 1.648.312 2.203.937.55.617.828 1.438.828 2.47 0 1.042-.277 1.87-.828 2.483-.555.617-1.29.922-2.203.922-.93 0-1.668-.305-2.22-.922C.774-1.41.5-2.237.5-3.28c0-1.033.273-1.853.828-2.47.55-.625 1.29-.938 2.22-.938zm0 0"/></symbol><symbol overflow="visible" id="b"><path d="M.89-6.563H2.08l2.906 5.485v-5.484h.86V0H4.656L1.75-5.484V0H.89zm0 0"/></symbol><symbol overflow="visible" id="c"><path d="M.89-6.563h.876v2.688H5v-2.688h.89V0H5v-3.125H1.766V0H.89zm0 0"/></symbol></defs><g><path fill="#fff" d="M0 0h300v300H0z"/><path d="M66.246 185.223l-8.793-2.668" stroke-width="1.2" stroke="#f00" stroke-miterlimit="10" fill="none"/><path d="M57.453 182.555l-8.793-2.664" stroke-width="1.2" stroke="#000" stroke-miterlimit="10" fill="none"/><path d="M66.246 185.223l6.703-6.286" stroke-width="1.2" stroke="#f00" stroke-miterlimit="10" fill="none"/><path d="M72.95 178.938l6.706-6.282" stroke-width="1.2" stroke="#000" stroke-miterlimit="10" fill="none"/><path d="M62.246 179.723h8v11h-8zm0 0" fill="#fff"/><use xlink:href="#a" x="62.246" y="188.386" fill="#f00"/><path d="M48.66 179.89l-13.41 12.567M79.656 172.656l-4.18-17.894M83.45 169.883l-3.345-14.317M97.242 177.988l-17.586-5.332M75.477 154.762l13.41-12.567M88.887 142.195l17.586 5.332M89.39 146.867l14.07 4.266M106.473 147.527l4.18 17.895M106.473 147.527l13.41-12.566M110.652 165.422l-13.41 12.566M106.352 163.523l-10.727 10.05M121.988 134.47l-2.09-8.947" stroke-width="1.2" stroke="#000" stroke-miterlimit="10" fill="none"/><path d="M119.898 125.523l-2.085-8.95" stroke-width="1.2" stroke="#f00" stroke-miterlimit="10" fill="none"/><path d="M117.777 135.453l-2.09-8.95" stroke-width="1.2" stroke="#000" stroke-miterlimit="10" fill="none"/><path d="M115.688 126.504l-2.086-8.945" stroke-width="1.2" stroke="#f00" stroke-miterlimit="10" fill="none"/><path d="M119.883 134.96l8.793 2.665" stroke-width="1.2" stroke="#000" stroke-miterlimit="10" fill="none"/><path d="M128.676 137.625l8.793 2.668" stroke-width="1.2" stroke="#00f" stroke-miterlimit="10" fill="none"/><path d="M111.707 111.566h8v11h-8zm0 0" fill="#fff"/><use xlink:href="#a" x="111.707" y="120.229" fill="#f00"/><path d="M137.47 140.293l6.706-6.285" stroke-width="1.2" stroke="#00f" stroke-miterlimit="10" fill="none"/><path d="M144.176 134.008l6.703-6.28" stroke-width="1.2" stroke="#000" stroke-miterlimit="10" fill="none"/><path d="M130.47 134.793h14v11h-14zm0 0" fill="#fff"/><g fill="#00f"><use xlink:href="#b" x="130.469" y="143.456"/><use xlink:href="#c" x="137.446" y="143.456"/></g><path d="M150.88 127.727l17.585 5.332M153.89 124.12l14.07 4.267M146.703 109.832l4.176 17.895M168.465 133.06l13.41-12.568M181.875 120.492l8.793 2.664" stroke-width="1.2" stroke="#000" stroke-miterlimit="10" fill="none"/><path d="M190.668 123.156l8.793 2.664" stroke-width="1.2" stroke="#00f" stroke-miterlimit="10" fill="none"/><path d="M181.875 120.492l-4.18-17.894M177.246 119.684l-3.344-14.317" stroke-width="1.2" stroke="#000" stroke-miterlimit="10" fill="none"/><path d="M199.46 125.82l2.09 8.95" stroke-width="1.2" stroke="#00f" stroke-miterlimit="10" fill="none"/><path d="M201.55 134.77l2.087 8.95" stroke-width="1.2" stroke="#000" stroke-miterlimit="10" fill="none"/><path d="M192.46 120.32h14v11h-14zm0 0" fill="#fff"/><g fill="#00f"><use xlink:href="#b" x="192.461" y="128.983"/><use xlink:href="#c" x="199.438" y="128.983"/></g><path d="M202.16 142.14l-6.707 6.282" stroke-width="1.2" stroke="#000" stroke-miterlimit="10" fill="none"/><path d="M195.453 148.422l-6.703 6.28" stroke-width="1.2" stroke="#f00" stroke-miterlimit="10" fill="none"/><path d="M205.117 145.297l-6.707 6.28" stroke-width="1.2" stroke="#000" stroke-miterlimit="10" fill="none"/><path d="M198.41 151.578l-6.703 6.28" stroke-width="1.2" stroke="#f00" stroke-miterlimit="10" fill="none"/><path d="M203.637 143.72l17.586 5.327" stroke-width="1.2" stroke="#000" stroke-miterlimit="10" fill="none"/><path d="M182.227 150.78h8v11h-8zm0 0" fill="#fff"/><use xlink:href="#a" x="182.227" y="159.444" fill="#f00"/><path d="M221.223 149.047l4.18 17.894M225.852 149.855l3.343 14.317M234.633 136.484l-13.41 12.563M225.402 166.94l17.586 5.333M242.988 172.273l2.086 8.95" stroke-width="1.2" stroke="#000" stroke-miterlimit="10" fill="none"/><path d="M245.074 181.223l2.09 8.945" stroke-width="1.2" stroke="#00f" stroke-miterlimit="10" fill="none"/><path d="M242.988 172.273l13.407-12.566M241.37 167.863L252.1 157.81" stroke-width="1.2" stroke="#000" stroke-miterlimit="10" fill="none"/><path d="M247.164 190.168l-6.703 6.285" stroke-width="1.2" stroke="#00f" stroke-miterlimit="10" fill="none"/><path d="M240.46 196.453l-6.706 6.28" stroke-width="1.2" stroke="#000" stroke-miterlimit="10" fill="none"/><path d="M247.164 190.168l8.793 2.664" stroke-width="1.2" stroke="#00f" stroke-miterlimit="10" fill="none"/><path d="M255.957 192.832l8.793 2.668" stroke-width="1.2" stroke="#000" stroke-miterlimit="10" fill="none"/><path d="M244.164 184.668h7v11h-7zm0 0" fill="#fff"/><use xlink:href="#b" x="244.164" y="193.331" fill="#00f"/><path d="M256.395 159.707l-4.176-17.894M252.22 141.813l-17.587-5.33M249.207 145.418l-14.07-4.266M177.695 102.598l-17.586-5.332M160.11 97.266l-13.407 12.566M161.727 101.68L151 111.73M146.703 109.832l-17.586-5.332" stroke-width="1.2" stroke="#000" stroke-miterlimit="10" fill="none"/></g></svg>
